src/main/resources/icons/JbpmIcons/icons/bpmn/gateways/Parallel.svg

<svg xmlns="http://www.w3.org/2000/svg" width="16" height="16" viewBox="0 0 16 16">
  <path fill="#B99BF8" fill-opacity=".7" fill-rule="evenodd" d="M8,0.928932188 L15.0710678,8 L8,15.0710678 L0.928932188,8 L8,0.928932188 Z M8.50000047,7.50000047 L8.50000047,4.50000047 L7.50000047,4.50000047 L7.50000047,7.50000047 L4.50000047,7.50000047 L4.50000047,8.50000047 L7.50000047,8.50000047 L7.50000047,11.5000005 L8.50000047,11.5000005 L8.50000047,8.50000047 L11.5000005,8.50000047 L11.5000005,7.50000047 L8.50000047,7.50000047 Z"/>
</svg>

<svg xmlns="http://www.w3.org/2000/svg" width="16" height="16" viewBox="0 0 16 16"><rect id="frame" width="16" height="16" fill="none"/><path fill="#B99BF8" fill-opacity=".7" fill-rule="evenodd" d="M8 .929L15.071 8 8 15.071.929 8 8 .929zM8.5 7.5v-3h-1v3h-3v1h3v3h1v-3h3v-1h-3z"/></svg>
